mediabuilder/img/logo.svg

<svg width="230" height="30" viewBox="0 0 230 30" fill="none" xmlns="http://www.w3.org/2000/svg">
<g clip-path="url(#clip0_545:17888)">
<path d="M27.6824 29.7537L27.5938 16.3119L20.8614 27.099H16.2551L9.52273 16.7754V29.7537H0V0.257568H8.5926L18.6911 15.9748L28.5239 0.257568H37.1165L37.2051 29.7537H27.6824Z" fill="#FF9900"/>
<path d="M66.7079 22.2532V29.7537H40.9301V0.257568H66.1321V7.75801H51.2058V11.2133H64.3161V18.3766H51.2058V22.2532H66.7079Z" fill="#FF9900"/>
<path d="M69.4031 0.257568H84.6838C88.1385 0.257568 91.1799 0.861537 93.8079 2.06947C96.4654 3.24932 98.5176 4.94885 99.9644 7.16808C101.441 9.38731 102.179 11.9998 102.179 15.0056C102.179 18.0114 101.441 20.6239 99.9644 22.8431C98.5176 25.0624 96.4654 26.776 93.8079 27.9839C91.1799 29.1637 88.1385 29.7537 84.6838 29.7537H69.4031V0.257568ZM84.2409 22.0004C86.485 22.0004 88.2714 21.3964 89.6002 20.1885C90.9584 18.9525 91.6376 17.2248 91.6376 15.0056C91.6376 12.7864 90.9584 11.0728 89.6002 9.86487C88.2714 8.62884 86.485 8.01083 84.2409 8.01083H79.856V22.0004H84.2409Z" fill="#FF9900"/>
<path d="M104.667 0.257568H115.12V29.7537H104.667V0.257568Z" fill="#FF9900"/>
<path d="M139.95 24.6129H128.169L126.087 29.7537H115.457L129.01 0.257568H139.286L152.839 29.7537H142.032L139.95 24.6129ZM137.071 17.4496L134.059 10.0334L131.048 17.4496H137.071Z" fill="#FF9900"/>
<path d="M150.359 0.212578H153.264V12.7547H161.442V15.0931H150.359V0.212578Z" fill="#00CCC0"/>
<path d="M175.675 15.3057C174.081 15.3057 172.643 14.9797 171.362 14.3278C170.081 13.6617 169.075 12.7476 168.346 11.5855C167.616 10.4093 167.251 9.09837 167.251 7.65283C167.251 6.2073 167.616 4.90348 168.346 3.74138C169.075 2.56512 170.081 1.65103 171.362 0.99912C172.643 0.33304 174.081 0 175.675 0C177.269 0 178.706 0.33304 179.987 0.99912C181.268 1.65103 182.274 2.55803 183.004 3.72013C183.734 4.88222 184.099 6.19313 184.099 7.65283C184.099 9.11254 183.734 10.4234 183.004 11.5855C182.274 12.7476 181.268 13.6617 179.987 14.3278C178.706 14.9797 177.269 15.3057 175.675 15.3057ZM175.675 12.8823C176.717 12.8823 177.656 12.6626 178.49 12.2233C179.324 11.7698 179.98 11.1462 180.456 10.3526C180.933 9.54478 181.171 8.64487 181.171 7.65283C181.171 6.6608 180.933 5.76797 180.456 4.97434C179.98 4.16654 179.324 3.54298 178.49 3.10365C177.656 2.65015 176.717 2.4234 175.675 2.4234C174.632 2.4234 173.693 2.65015 172.859 3.10365C172.025 3.54298 171.37 4.16654 170.893 4.97434C170.416 5.76797 170.178 6.6608 170.178 7.65283C170.178 8.64487 170.416 9.54478 170.893 10.3526C171.37 11.1462 172.025 11.7698 172.859 12.2233C173.693 12.6626 174.632 12.8823 175.675 12.8823Z" fill="#00CCC0"/>
<path d="M202.774 7.48277H205.523V13.4137C204.718 14.0231 203.78 14.4908 202.707 14.8167C201.635 15.1427 200.532 15.3057 199.4 15.3057C197.806 15.3057 196.369 14.9797 195.088 14.3278C193.807 13.6617 192.801 12.7476 192.071 11.5855C191.341 10.4234 190.976 9.11254 190.976 7.65283C190.976 6.19313 191.341 4.88222 192.071 3.72013C192.801 2.55803 193.807 1.65103 195.088 0.99912C196.384 0.33304 197.836 0 199.445 0C200.756 0 201.948 0.205493 203.02 0.616478C204.093 1.02746 204.994 1.62977 205.724 2.4234L203.892 4.12403C202.7 2.99027 201.262 2.4234 199.579 2.4234C198.477 2.4234 197.494 2.64306 196.63 3.08239C195.78 3.52172 195.11 4.1382 194.618 4.93183C194.142 5.72545 193.903 6.63246 193.903 7.65283C193.903 8.64487 194.142 9.5377 194.618 10.3313C195.11 11.125 195.78 11.7485 196.63 12.202C197.494 12.6555 198.469 12.8823 199.557 12.8823C200.778 12.8823 201.851 12.6272 202.774 12.117V7.48277Z" fill="#00CCC0"/>
<path d="M221.577 15.3057C219.983 15.3057 218.545 14.9797 217.264 14.3278C215.983 13.6617 214.977 12.7476 214.247 11.5855C213.518 10.4093 213.153 9.09837 213.153 7.65283C213.153 6.2073 213.518 4.90348 214.247 3.74138C214.977 2.56512 215.983 1.65103 217.264 0.99912C218.545 0.33304 219.983 0 221.577 0C223.171 0 224.608 0.33304 225.889 0.99912C227.17 1.65103 228.176 2.55803 228.906 3.72013C229.636 4.88222 230.001 6.19313 230.001 7.65283C230.001 9.11254 229.636 10.4234 228.906 11.5855C228.176 12.7476 227.17 13.6617 225.889 14.3278C224.608 14.9797 223.171 15.3057 221.577 15.3057ZM221.577 12.8823C222.619 12.8823 223.558 12.6626 224.392 12.2233C225.226 11.7698 225.882 11.1462 226.358 10.3526C226.835 9.54478 227.073 8.64487 227.073 7.65283C227.073 6.6608 226.835 5.76797 226.358 4.97434C225.882 4.16654 225.226 3.54298 224.392 3.10365C223.558 2.65015 222.619 2.4234 221.577 2.4234C220.534 2.4234 219.595 2.65015 218.761 3.10365C217.927 3.54298 217.271 4.16654 216.795 4.97434C216.318 5.76797 216.08 6.6608 216.08 7.65283C216.08 8.64487 216.318 9.54478 216.795 10.3526C217.271 11.1462 217.927 11.7698 218.761 12.2233C219.595 12.6626 220.534 12.8823 221.577 12.8823Z" fill="#00CCC0"/>
<path d="M163.102 24.1197C163.771 24.3558 164.289 24.6996 164.656 25.1511C165.022 25.6027 165.206 26.1466 165.206 26.7828C165.206 27.727 164.796 28.4607 163.976 28.9841C163.156 29.4973 161.97 29.7538 160.416 29.7538H154.041V18.9783H160.093C161.603 18.9783 162.741 19.2348 163.507 19.748C164.283 20.2611 164.672 20.9435 164.672 21.7953C164.672 22.2982 164.537 22.7497 164.267 23.1499C164.008 23.5502 163.62 23.8734 163.102 24.1197ZM157.795 21.5182V23.1192H159.575C160.405 23.1192 160.821 22.8523 160.821 22.3187C160.821 21.785 160.405 21.5182 159.575 21.5182H157.795ZM160.093 27.2139C160.934 27.2139 161.355 26.9316 161.355 26.3672C161.355 25.8028 160.934 25.5206 160.093 25.5206H157.795V27.2139H160.093Z" fill="#333333"/>
<path d="M171.976 30.0001C170.24 30.0001 168.886 29.5537 167.915 28.6609C166.944 27.768 166.459 26.516 166.459 24.9048V18.9783H170.277V24.7971C170.277 25.5873 170.423 26.162 170.714 26.5212C171.016 26.8803 171.448 27.0599 172.009 27.0599C172.57 27.0599 172.996 26.8803 173.287 26.5212C173.589 26.162 173.74 25.5873 173.74 24.7971V18.9783H177.494V24.9048C177.494 26.516 177.009 27.768 176.038 28.6609C175.067 29.5537 173.713 30.0001 171.976 30.0001Z" fill="#333333"/>
<path d="M179.244 18.9783H183.063V29.7538H179.244V18.9783Z" fill="#333333"/>
<path d="M184.901 18.9783H188.72V26.9368H193.833V29.7538H184.901V18.9783Z" fill="#333333"/>
<path d="M194.888 18.9783H200.47C201.732 18.9783 202.843 19.1989 203.803 19.6402C204.774 20.0712 205.524 20.6921 206.053 21.5028C206.592 22.3136 206.862 23.268 206.862 24.366C206.862 25.4641 206.592 26.4185 206.053 27.2293C205.524 28.04 204.774 28.666 203.803 29.1073C202.843 29.5383 201.732 29.7538 200.47 29.7538H194.888V18.9783ZM200.308 26.9214C201.128 26.9214 201.781 26.7007 202.266 26.2595C202.762 25.8079 203.011 25.1768 203.011 24.366C203.011 23.5553 202.762 22.9293 202.266 22.488C201.781 22.0365 201.128 21.8107 200.308 21.8107H198.706V26.9214H200.308Z" fill="#333333"/>
<path d="M217.673 27.0137V29.7538H208.256V18.9783H217.463V21.7183H212.01V22.9806H216.799V25.5975H212.01V27.0137H217.673Z" fill="#333333"/>
<path d="M223.997 27.0445H222.962V29.7538H219.143V18.9783H224.596C225.642 18.9783 226.554 19.1425 227.331 19.4709C228.107 19.7993 228.706 20.2713 229.127 20.8871C229.547 21.5028 229.758 22.2212 229.758 23.0422C229.758 23.8119 229.574 24.4841 229.207 25.0588C228.841 25.6335 228.312 26.0901 227.622 26.4288L230 29.7538H225.923L223.997 27.0445ZM225.907 23.0422C225.907 22.642 225.777 22.3341 225.518 22.1186C225.259 21.8928 224.871 21.7799 224.353 21.7799H222.962V24.3045H224.353C224.871 24.3045 225.259 24.1967 225.518 23.9812C225.777 23.7554 225.907 23.4424 225.907 23.0422Z" fill="#333333"/>
</g>
<defs>
<clipPath id="clip0_545:17888">
<rect width="230" height="30" fill="white"/>
</clipPath>
</defs>
</svg>

<svg width="230" height="30" fill="none" xmlns="http://www.w3.org/2000/svg"><g clip-path="url(#clip0_545:17888)"><path d="M27.682 29.754l-.088-13.442-6.733 10.787h-4.606L9.523 16.775v12.979H0V.258h8.593L18.69 15.975 28.524.258h8.593l.088 29.496h-9.523zm39.026-7.501v7.5H40.93V.259h25.202v7.5H51.206v3.455h13.11v7.164h-13.11v3.876h15.502zM69.403.258h15.28c3.455 0 6.497.604 9.125 1.811 2.657 1.18 4.71 2.88 6.156 5.1 1.477 2.218 2.215 4.83 2.215 7.837 0 3.005-.738 5.618-2.215 7.837-1.446 2.22-3.499 3.933-6.156 5.14-2.628 1.18-5.67 1.77-9.124 1.77h-15.28V.259zM84.241 22c2.244 0 4.03-.604 5.36-1.811 1.357-1.236 2.037-2.964 2.037-5.183 0-2.22-.68-3.933-2.038-5.141-1.329-1.236-3.115-1.854-5.36-1.854h-4.384V22h4.385zM104.667.258h10.453v29.496h-10.453V.258zm35.283 24.355h-11.781l-2.082 5.14h-10.63L129.01.259h10.276l13.553 29.496h-10.807l-2.082-5.141zm-2.879-7.163l-3.012-7.417-3.011 7.417h6.023z" fill="#F90"/><path d="M150.359.213h2.905v12.542h8.178v2.338h-11.083V.213zm25.316 15.093c-1.594 0-3.032-.326-4.313-.978-1.281-.666-2.287-1.58-3.016-2.742-.73-1.177-1.095-2.488-1.095-3.933 0-1.446.365-2.75 1.095-3.912.729-1.176 1.735-2.09 3.016-2.742C172.643.333 174.081 0 175.675 0c1.594 0 3.031.333 4.312 1 1.281.651 2.287 1.558 3.017 2.72.73 1.162 1.095 2.473 1.095 3.933s-.365 2.77-1.095 3.933c-.73 1.162-1.736 2.076-3.017 2.742-1.281.652-2.718.978-4.312.978zm0-2.424c1.042 0 1.981-.22 2.815-.659a5.07 5.07 0 001.966-1.87c.477-.808.715-1.708.715-2.7 0-.992-.238-1.885-.715-2.679a4.875 4.875 0 00-1.966-1.87c-.834-.454-1.773-.68-2.815-.68-1.043 0-1.982.226-2.816.68a4.881 4.881 0 00-1.966 1.87c-.477.794-.715 1.687-.715 2.679 0 .992.238 1.892.715 2.7a5.077 5.077 0 001.966 1.87c.834.44 1.773.66 2.816.66zm27.099-5.399h2.749v5.93c-.805.61-1.743 1.078-2.816 1.404a11.307 11.307 0 01-3.307.489c-1.594 0-3.031-.326-4.312-.978-1.281-.666-2.287-1.58-3.017-2.742-.73-1.163-1.095-2.473-1.095-3.933s.365-2.77 1.095-3.933c.73-1.162 1.736-2.069 3.017-2.72 1.296-.667 2.748-1 4.357-1 1.311 0 2.503.205 3.575.616 1.073.411 1.974 1.014 2.704 1.807l-1.832 1.701c-1.192-1.134-2.63-1.7-4.313-1.7-1.102 0-2.085.22-2.949.658a5.042 5.042 0 00-2.012 1.85c-.476.793-.715 1.7-.715 2.72 0 .993.239 1.886.715 2.68a5.196 5.196 0 002.012 1.87c.864.454 1.839.68 2.927.68 1.221 0 2.294-.255 3.217-.765V7.483zm18.803 7.823c-1.594 0-3.032-.326-4.313-.978-1.281-.666-2.287-1.58-3.017-2.742-.729-1.177-1.094-2.488-1.094-3.933 0-1.446.365-2.75 1.094-3.912.73-1.176 1.736-2.09 3.017-2.742C218.545.333 219.983 0 221.577 0c1.594 0 3.031.333 4.312 1 1.281.651 2.287 1.558 3.017 2.72.73 1.162 1.095 2.473 1.095 3.933s-.365 2.77-1.095 3.933c-.73 1.162-1.736 2.076-3.017 2.742-1.281.652-2.718.978-4.312.978zm0-2.424c1.042 0 1.981-.22 2.815-.659a5.07 5.07 0 001.966-1.87c.477-.808.715-1.708.715-2.7 0-.992-.238-1.885-.715-2.679a4.875 4.875 0 00-1.966-1.87c-.834-.454-1.773-.68-2.815-.68-1.043 0-1.982.226-2.816.68a4.875 4.875 0 00-1.966 1.87c-.477.794-.715 1.687-.715 2.679 0 .992.238 1.892.715 2.7a5.07 5.07 0 001.966 1.87c.834.44 1.773.66 2.816.66z" fill="#00CCC0"/><path d="M163.102 24.12c.669.236 1.187.58 1.554 1.031.366.452.55.996.55 1.632 0 .944-.41 1.678-1.23 2.201-.82.513-2.006.77-3.56.77h-6.375V18.978h6.052c1.51 0 2.648.257 3.414.77.776.513 1.165 1.195 1.165 2.047 0 .503-.135.955-.405 1.355-.259.4-.647.723-1.165.97zm-5.307-2.602v1.601h1.78c.83 0 1.246-.267 1.246-.8 0-.534-.416-.8-1.246-.8h-1.78zm2.298 5.696c.841 0 1.262-.282 1.262-.847 0-.564-.421-.846-1.262-.846h-2.298v1.693h2.298zM171.976 30c-1.736 0-3.09-.446-4.061-1.34-.971-.892-1.456-2.144-1.456-3.755v-5.927h3.818v5.82c0 .79.146 1.364.437 1.723.302.36.734.539 1.295.539.561 0 .987-.18 1.278-.539.302-.359.453-.934.453-1.724v-5.819h3.754v5.927c0 1.611-.485 2.863-1.456 3.756-.971.893-2.325 1.34-4.062 1.34zm7.268-11.022h3.819v10.776h-3.819V18.978zm5.657 0h3.819v7.959h5.113v2.817h-8.932V18.978zm9.987 0h5.582c1.262 0 2.373.22 3.333.662.971.431 1.721 1.052 2.25 1.863.539.81.809 1.765.809 2.863s-.27 2.053-.809 2.863c-.529.811-1.279 1.437-2.25 1.878-.96.431-2.071.647-3.333.647h-5.582V18.978zm5.42 7.943c.82 0 1.473-.22 1.958-.662.496-.451.745-1.082.745-1.893 0-.81-.249-1.437-.745-1.878-.485-.451-1.138-.677-1.958-.677h-1.602v5.11h1.602zm17.365.093v2.74h-9.417V18.978h9.207v2.74h-5.453v1.263h4.789v2.616h-4.789v1.417h5.663zm6.324.03h-1.035v2.71h-3.819V18.978h5.453c1.046 0 1.958.164 2.735.493.776.328 1.375.8 1.796 1.416.42.616.631 1.334.631 2.155 0 .77-.184 1.442-.551 2.017-.366.575-.895 1.031-1.585 1.37L230 29.754h-4.077l-1.926-2.71zm1.91-4.002c0-.4-.13-.708-.389-.923-.259-.226-.647-.34-1.165-.34h-1.391v2.526h1.391c.518 0 .906-.108 1.165-.324.259-.226.389-.539.389-.939z" fill="#333"/></g><defs><clipPath id="clip0_545:17888"><path fill="#fff" d="M0 0h230v30H0z"/></clipPath></defs></svg>
